svg/flower_tulip_outline.svg

<svg xmlns="http://www.w3.org/2000/svg" viewBox="0 0 24 24"><path d="M3 13a9 9 0 0 0 9 9 9 9 0 0 0-9-9m2.44 2.44c1.91.71 3.41 2.21 4.12 4.12a7 7 0 0 1-4.12-4.12M12 22a9 9 0 0 0 9-9 9 9 0 0 0-9 9m2.42-2.43a6.88 6.88 0 0 1 4.15-4.15 7.03 7.03 0 0 1-4.15 4.15M12 14a6 6 0 0 0 6-6V3a5.9 5.9 0 0 0-2.16.39c-.55.23-1.04.57-1.45 1L12 2 9.61 4.39c-.41-.43-.9-.77-1.45-1A5.9 5.9 0 0 0 6 3v5a6 6 0 0 0 6 6M8 5.61l1.57 1.65L12 4.83l2.43 2.43L16 5.61V8a4 4 0 0 1-4 4 4 4 0 0 1-4-4z"/></svg>

<?xml version="1.0" encoding="UTF-8"?><!DOCTYPE svg PUBLIC "-//W3C//DTD SVG 1.1//EN" "http://www.w3.org/Graphics/SVG/1.1/DTD/svg11.dtd"><svg xmlns="http://www.w3.org/2000/svg" xmlns:xlink="http://www.w3.org/1999/xlink" version="1.1" id="mdi-flower-tulip-outline" width="24" height="24" viewBox="0 0 24 24"><path d="M3,13A9,9 0 0,0 12,22A9,9 0 0,0 3,13M5.44,15.44C7.35,16.15 8.85,17.65 9.56,19.56C7.65,18.85 6.15,17.35 5.44,15.44M12,22A9,9 0 0,0 21,13A9,9 0 0,0 12,22M14.42,19.57C15.11,17.64 16.64,16.11 18.57,15.42C17.86,17.34 16.34,18.86 14.42,19.57M12,14A6,6 0 0,0 18,8V3C17.26,3 16.53,3.12 15.84,3.39C15.29,3.62 14.8,3.96 14.39,4.39L12,2L9.61,4.39C9.2,3.96 8.71,3.62 8.16,3.39C7.47,3.12 6.74,3 6,3V8A6,6 0 0,0 12,14M8,5.61L9.57,7.26L12,4.83L14.43,7.26L16,5.61V8A4,4 0 0,1 12,12A4,4 0 0,1 8,8V5.61Z" /></svg>
